usr/share/icons/biglinux-icons-material/scalable/apps/distributor-logo-deepin.svg

<?xml version="1.0" encoding="UTF-8" standalone="no"?>
<svg
   width="24"
   height="24"
   viewBox="0 0 24 24"
   fill="none"
   version="1.1"
   id="svg154"
   sodipodi:docname="distributor-logo-deepin.svg"
   inkscape:version="1.2.2 (b0a8486541, 2022-12-01)"
   xml:space="preserve"
   xmlns:inkscape="http://www.inkscape.org/namespaces/inkscape"
   xmlns:sodipodi="http://sodipodi.sourceforge.net/DTD/sodipodi-0.dtd"
   xmlns:xlink="http://www.w3.org/1999/xlink"
   xmlns="http://www.w3.org/2000/svg"
   xmlns:svg="http://www.w3.org/2000/svg"
   xmlns:sketch="http://www.bohemiancoding.com/sketch/ns"><sodipodi:namedview
     id="namedview156"
     pagecolor="#ffffff"
     bordercolor="#000000"
     borderopacity="1"
     inkscape:showpageshadow="0"
     inkscape:pageopacity="1"
     inkscape:pagecheckerboard="false"
     inkscape:deskcolor="#ffffff"
     showgrid="true"
     inkscape:zoom="22.627417"
     inkscape:cx="13.214058"
     inkscape:cy="6.3860581"
     inkscape:window-width="1920"
     inkscape:window-height="1052"
     inkscape:window-x="0"
     inkscape:window-y="0"
     inkscape:window-maximized="1"
     inkscape:current-layer="svg154"
     showguides="true"
     guidecolor="#ff0000"
     guideopacity="1"
     inkscape:lockguides="true"
     showborder="true"
     borderlayer="true"><inkscape:grid
       type="xygrid"
       id="grid356"
       color="#000000"
       opacity="0.10196078"
       empcolor="#000000"
       empopacity="0.10196078"
       snapvisiblegridlinesonly="true"
       enabled="true"
       visible="true"
       dotted="false" /><sodipodi:guide
       position="4.003125,23.042969"
       orientation="1,0"
       id="guide764"
       inkscape:locked="true" /><sodipodi:guide
       position="5.0007813,21.049219"
       orientation="1,0"
       id="guide2218"
       inkscape:locked="true" /><sodipodi:guide
       position="3.6445312,20"
       orientation="0,-1"
       id="guide2220"
       inkscape:locked="true" /><sodipodi:guide
       position="3.796875,5"
       orientation="0,-1"
       id="guide2222"
       inkscape:locked="true" /><sodipodi:guide
       position="3.625,4"
       orientation="0,-1"
       id="guide2224"
       inkscape:locked="true" /><sodipodi:guide
       position="19,4.8984375"
       orientation="1,0"
       id="guide2226"
       inkscape:locked="true" /><sodipodi:guide
       position="20,3.3312502"
       orientation="1,0"
       id="guide2228"
       inkscape:locked="true" /><sodipodi:guide
       position="22.875,19"
       orientation="0,-1"
       id="guide2230"
       inkscape:locked="true" /></sodipodi:namedview><defs
     id="defs152"><radialGradient
       id="radialGradient1281"
       cx="0"
       cy="0"
       r="1"
       gradientUnits="userSpaceOnUse"
       gradientTransform="translate(12 1) rotate(90) scale(22)"><stop
         stop-color="#8FC8FF"
         id="stop1277"
         offset="0.00424011"
         style="stop-color:#ffffff;stop-opacity:1;" /><stop
         offset="0.99151897"
         stop-color="#0056A8"
         id="stop1279"
         style="stop-color:#ffffff;stop-opacity:1;" /></radialGradient><radialGradient
       id="paint0_radial_29_23"
       cx="0"
       cy="0"
       r="1"
       gradientUnits="userSpaceOnUse"
       gradientTransform="translate(12 1) rotate(90) scale(22)"><stop
         stop-color="#8FC8FF"
         id="stop147"
         offset="0"
         style="stop-color:#f6f6f6;stop-opacity:1;" /><stop
         offset="1"
         stop-color="#0056A8"
         id="stop149"
         style="stop-color:#cfcfcf;stop-opacity:1;" /></radialGradient><radialGradient
       id="paint0_radial_10_2"
       cx="0"
       cy="0"
       r="1"
       gradientUnits="userSpaceOnUse"
       gradientTransform="matrix(-10.999959,21.999967,-21.999967,-10.999959,17.5,1)"
       xlink:href="#paint0_radial_29_23"><stop
         stop-color="#777777"
         id="stop2847" /><stop
         offset="1"
         stop-color="#222222"
         id="stop2849" /></radialGradient><linearGradient
       x1="12"
       y1="1"
       x2="12"
       y2="23"
       gradientUnits="userSpaceOnUse"
       gradientTransform="matrix(0.75,0,0,0.75,-7.98374e-6,2.65834e-5)"
       spreadMethod="pad"
       id="linearGradient44915"><stop
         style="stop-opacity:1;stop-color:#ff5f5f"
         offset="0"
         id="stop44911" /><stop
         style="stop-opacity:1;stop-color:#e82e34"
         offset="1"
         id="stop44913" /></linearGradient><radialGradient
       id="SVGID_1_"
       cx="85.226997"
       cy="71.662003"
       r="47.776001"
       gradientTransform="matrix(1,0,0,-1,0,103.8)"
       gradientUnits="userSpaceOnUse"><stop
         offset="0"
         stop-color="#00aeff"
         id="stop12" /><stop
         offset=".131"
         stop-color="#00a5f7"
         id="stop14" /><stop
         offset=".345"
         stop-color="#008de0"
         id="stop16" /><stop
         offset=".616"
         stop-color="#0065ba"
         id="stop18" /><stop
         offset=".928"
         stop-color="#002f87"
         id="stop20" /><stop
         offset="1"
         stop-color="#00217a"
         id="stop22" /></radialGradient><linearGradient
       id="SVGID_3_"
       gradientUnits="userSpaceOnUse"
       x1="92.800003"
       y1="72.949997"
       x2="130.763"
       y2="72.949997"
       gradientTransform="matrix(1,0,0,-1,0,103.8)"><stop
         offset="0"
         stop-color="#FFF"
         id="stop29" /><stop
         offset="1"
         stop-color="#FFF"
         stop-opacity="0"
         id="stop31" /></linearGradient><radialGradient
       id="SVGID_4_"
       cx="83.728996"
       cy="73.999001"
       r="8.2860003"
       gradientTransform="matrix(1,0,0,-1,0,103.8)"
       gradientUnits="userSpaceOnUse"><stop
         offset="0"
         stop-color="#FFF"
         id="stop36" /><stop
         offset=".679"
         stop-color="#7a7a7a"
         id="stop38" /><stop
         offset="1"
         stop-color="#404040"
         id="stop40" /></radialGradient><radialGradient
       fx="0"
       fy="0"
       cx="0"
       cy="0"
       r="1"
       gradientUnits="userSpaceOnUse"
       gradientTransform="matrix(0,16.5,-16.5,0,8.999996,0.750012)"
       spreadMethod="pad"
       id="radialGradient3666-6"><stop
         style="stop-color:#ffffff;stop-opacity:1;"
         offset="0"
         id="stop3662-7" /><stop
         style="stop-color:#f7da4d;stop-opacity:1;"
         offset="1"
         id="stop3664-5" /></radialGradient><clipPath
       id="a"><path
         d="M 0,0.113 H 91.887 V 92 H 0 Z m 0,0"
         id="path76179" /></clipPath><clipPath
       id="a-3"><path
         d="M 0,0.113 H 91.887 V 92 H 0 Z m 0,0"
         id="path76179-5" /></clipPath><radialGradient
       fx="0"
       fy="0"
       cx="0"
       cy="0"
       r="1"
       gradientUnits="userSpaceOnUse"
       gradientTransform="matrix(0,16.5,-16.5,0,8.999996,0.750012)"
       spreadMethod="pad"
       id="radialGradient3666-6-2"><stop
         style="stop-color:#ffffff;stop-opacity:1;"
         offset="0"
         id="stop3662-7-9" /><stop
         style="stop-color:#3dc89a;stop-opacity:1;"
         offset="1"
         id="stop3664-5-1" /></radialGradient><linearGradient
       id="paint0_linear_3_169"
       x1="12"
       y1="1"
       x2="12"
       y2="12"
       gradientUnits="userSpaceOnUse"><stop
         stop-color="#AAA2FF"
         id="stop132364" /><stop
         offset="1"
         stop-color="#7164EE"
         id="stop132366" /></linearGradient><linearGradient
       id="paint0_linear_3_169-2"
       x1="12"
       y1="1"
       x2="12"
       y2="12"
       gradientUnits="userSpaceOnUse"><stop
         stop-color="#AAA2FF"
         id="stop133305" /><stop
         offset="1"
         stop-color="#7164EE"
         id="stop133307" /></linearGradient></defs><path
     d="M 50,5 C 9.0909092,5 5,25.454546 5,50 5,82.727274 17.272728,95 50,95 82.727274,95 95,82.727274 95,50 95,25.454546 90.909093,5 50,5 Z"
     sketch:type="MSShapeGroup"
     id="path6"
     style="font-variation-settings:normal;display:inline;opacity:1;vector-effect:none;fill:#00bcfb;fill-opacity:1;stroke-width:4.56656;stroke-linecap:butt;stroke-linejoin:miter;stroke-miterlimit:4;stroke-dasharray:none;stroke-dashoffset:0;stroke-opacity:1;-inkscape-stroke:none;stop-color:#000000;stop-opacity:1"
     sodipodi:nodetypes="sssss"
     inkscape:label="Shape"
     transform="matrix(0.24444444,0,0,0.24444444,-0.22222222,-0.22222222)"
     sodipodi:insensitive="true" /><g
     inkscape:groupmode="layer"
     id="layer4"
     inkscape:label="Colors References"
     style="display:none"
     sodipodi:insensitive="true"
     inkscape:highlight-color="#cc5ecc"><rect
       style="display:inline;fill:#3947be;fill-opacity:1;stroke-width:22.6872;paint-order:markers stroke fill"
       id="rect7816"
       width="1.9999923"
       height="2"
       x="12"
       y="-2.9999964"
       rx="0"
       ry="0"
       inkscape:label="Dark Blue" /><rect
       style="display:inline;fill:#6c7ad8;fill-opacity:1;stroke-width:22.6873;paint-order:markers stroke fill"
       id="rect7820"
       width="2"
       height="2.0000076"
       x="9"
       y="-3.0000041"
       rx="0"
       ry="0"
       inkscape:label="Blue" /><rect
       style="display:inline;fill:#33cc33;fill-opacity:1;stroke-width:22.6873;paint-order:markers stroke fill"
       id="rect7814"
       width="2"
       height="2.0000076"
       x="6"
       y="-3.0000041"
       rx="0"
       ry="0"
       inkscape:label="Green" /><rect
       style="display:inline;fill:#ffc328;fill-opacity:1;stroke-width:22.6872;paint-order:markers stroke fill"
       id="rect7824"
       width="1.9999926"
       height="2.0000002"
       x="3"
       y="-2.9999964"
       rx="0"
       ry="0"
       inkscape:label="Yellow" /><rect
       style="display:inline;fill:#cc5e55;fill-opacity:1;stroke-width:22.6873;paint-order:markers stroke fill"
       id="rect7822"
       width="2"
       height="2.0000076"
       x="0"
       y="-3.0000038"
       rx="0"
       ry="0"
       inkscape:label="Red" /><rect
       style="display:inline;fill:#0bb1cb;fill-opacity:1;stroke-width:22.6872;paint-order:markers stroke fill"
       id="rect3087"
       width="1.9999919"
       height="1.9999996"
       x="-3"
       y="12.000004"
       rx="0"
       ry="0"
       inkscape:label="Blue 4" /><rect
       style="display:inline;fill:#2a92c9;fill-opacity:1;stroke-width:22.6873;paint-order:markers stroke fill"
       id="rect3085"
       width="2"
       height="2.0000079"
       x="-3"
       y="8.9999962"
       rx="0"
       ry="0"
       inkscape:label="Blue 3" /><rect
       style="display:inline;fill:#006699;fill-opacity:1;stroke-width:22.6873;paint-order:markers stroke fill"
       id="rect3089"
       width="2"
       height="2.0000076"
       x="-3"
       y="6.0000038"
       rx="0"
       ry="0"
       inkscape:label="Blue 2" /><rect
       style="display:inline;fill:#002a44;fill-opacity:1;stroke-width:22.6873;paint-order:markers stroke fill"
       id="rect3083"
       width="2"
       height="2.0000076"
       x="-3"
       y="2.9999962"
       rx="0"
       ry="0"
       inkscape:label="Blue 1" /><rect
       style="display:inline;fill:#2c2d3d;fill-opacity:1;stroke-width:22.6873;paint-order:markers stroke fill"
       id="rect3456"
       width="2"
       height="2.0000076"
       x="-3"
       y="-3.8146973e-06"
       rx="0"
       ry="0"
       inkscape:label="Gray" /><rect
       style="display:inline;fill:#16171c;fill-opacity:1;stroke-width:22.6872;paint-order:markers stroke fill"
       id="rect3091"
       width="1.9999924"
       height="2"
       x="-3"
       y="-3"
       rx="0"
       ry="0"
       inkscape:label="Black" /></g><g
     id="g156723"
     transform="matrix(0.71402487,0,0,0.71402487,5.9543661,5.9519211)"><path
       d="M 7.7616844,-1.3202369 C 6.5681079,-1.2937718 6.6501497,-1.0794044 6.1446661,-0.04991155 5.3295407,1.6015114 4.7605407,3.9992505 4.8769873,5.4151339 5.0013733,6.9262917 5.4062895,7.9134404 6.1923033,8.6491705 7.1318147,9.5436912 8.2830471,9.4272447 9.2516701,8.3871659 10.122373,7.4529475 10.442601,6.4816779 10.521996,4.364469 10.566987,3.0253344 10.593452,2.8638972 10.694019,3.0941436 11.08041,3.9860179 11.180977,6.0794082 10.91368,7.1168405 10.691373,7.9769567 10.135605,9.0249751 9.6883445,9.4378308 9.0981725,9.9803656 8.4630098,10.226491 7.5896612,10.266189 7.0021357,10.292654 6.7718892,10.284714 6.3193358,10.13651 5.160164,9.7501191 3.7284014,8.6438775 2.907983,7.5561614 1.7408716,6.0132454 0.57905322,2.8771297 0.28264398,0.38411627 A 5.0389572,5.0389572 0 0 0 0.11062075,-0.57656727 c -0.20907437,-0.238186 -1.0136137,0.7621952 -1.26767885,1.57467412 C -1.3211418,1.5194695 -1.3317278,1.7655951 -1.3317278,6.3784639 v 4.8563481 l 0.2196604,0.132325 c 0.30964187,0.198489 1.65936249,0.603405 2.7603111,0.828358 0.8362975,0.172024 1.1724044,0.219661 3.1493482,0.219661 1.9769438,0 2.3474554,-0.05293 3.1070041,-0.219661 1.2385672,-0.27259 2.1622,-0.714558 2.932335,-1.487339 1.082423,-1.0850694 1.482046,-2.1860181 1.487339,-3.8903712 0,-1.1353533 -0.158791,-2.0404601 -0.616637,-2.9349808 -0.161437,-0.3255209 -0.322874,-0.5928185 -0.306995,-0.6113441 0.103214,-0.1032139 1.233274,1.2465067 1.489985,1.791688 1.619665,3.4272319 0.846884,6.2219481 -2.49566,9.0087241 -1.4820463,1.23592 -4.043869,2.932334 -5.5126827,3.673357 -0.5134232,0.256712 -0.6086976,0.354633 -0.4816651,0.481665 0.031758,0.03176 2.5882879,0.05822 5.6847068,0.04234 l 5.645008,-0.04234 0.481665,-0.21966 c 0.973916,-0.465786 1.587906,-1.153879 1.879023,-2.10133 0.169376,-0.539888 0.174669,-0.786014 0.174669,-7.4340498 0,-6.9841428 -0.01059,-7.58490082 -0.304348,-7.6987008 -0.06881,-0.0238186 -0.727791,0.0502837 -1.447642,0.17202322 C 15.719744,1.0880882 14.597623,1.2018882 13.629,1.2548184 11.935233,1.3421533 11.083056,1.506237 10.082675,1.9111532 9.1563957,2.2896043 8.619154,2.593953 8.1136704,3.0041623 7.6637635,3.3746738 7.6002472,3.422311 7.4573356,4.012483 7.2562008,4.8249619 7.1318147,5.1875339 6.7983543,5.6295013 6.5495823,5.9523757 6.3087498,6.1111663 6.3113963,5.9364966 6.3246289,5.6242083 6.6078055,4.6449992 6.8830427,4.0971714 7.6955216,2.4827996 8.7541261,1.3262742 10.821052,-0.23252082 c 0.635162,-0.48431154 1.180344,-0.89981378 1.180344,-0.96597658 0,-0.095274 -0.460493,-0.1323255 -2.5406515,-0.1323255 -0.7410231,0 -1.3073765,-0.00529 -1.7043531,0 m 1.7043531,4.1179713 c 0.1323256,0 0.1349721,0.1323255 -0.042344,1.444995 C 9.2278515,5.6136222 8.7303075,6.7198639 8.1030843,7.3814917 7.661117,7.8499241 7.1820985,7.9743101 6.838052,7.7281846 A 1.4026509,1.4026509 0 0 1 6.4013777,6.8998266 c 0,-0.1111534 0.039698,-0.1164465 0.1720232,-0.042344 C 6.838052,6.9977475 6.9492055,6.9659894 7.2747263,6.6828127 7.8172611,6.2037942 8.386261,4.8302549 8.6773772,3.2688134 8.7064889,3.0888506 9.2066795,2.7818553 9.4607445,2.7818553 m 0,0"
       fill="#ffffff"
       id="path156596"
       style="stroke-width:2.64651" /></g></svg>

<svg xmlns="http://www.w3.org/2000/svg" xml:space="preserve" width="24" height="24" fill="none"><defs><radialGradient id="a" cx="0" cy="0" r="1" gradientTransform="matrix(0 22 -22 0 12 1)" gradientUnits="userSpaceOnUse"><stop offset="0" stop-color="#8FC8FF" style="stop-color:#f6f6f6;stop-opacity:1"/><stop offset="1" stop-color="#0056A8" style="stop-color:#cfcfcf;stop-opacity:1"/></radialGradient></defs><path d="M50 5C9.09 5 5 25.455 5 50c0 32.727 12.273 45 45 45 32.727 0 45-12.273 45-45 0-24.545-4.09-45-45-45Z" style="font-variation-settings:normal;display:inline;opacity:1;vector-effect:none;fill:#00bcfb;fill-opacity:1;stroke-width:4.56656;stroke-linecap:butt;stroke-linejoin:miter;stroke-miterlimit:4;stroke-dasharray:none;stroke-dashoffset:0;stroke-opacity:1;-inkscape-stroke:none;stop-color:#000;stop-opacity:1" transform="matrix(.24444 0 0 .24444 -.222 -.222)"/><path fill="#fff" d="M7.762-1.32c-1.194.026-1.112.24-1.617 1.27C5.33 1.602 4.76 4 4.877 5.415c.124 1.511.53 2.498 1.315 3.234.94.895 2.091.778 3.06-.262.87-.934 1.19-1.905 1.27-4.023.045-1.339.071-1.5.172-1.27.386.892.487 2.985.22 4.023-.223.86-.778 1.908-1.226 2.32-.59.543-1.225.79-2.098.83-.588.026-.818.018-1.27-.13-1.16-.387-2.592-1.493-3.412-2.58C1.741 6.012.579 2.876.283.383a5.039 5.039 0 0 0-.172-.96C-.1-.816-.903.185-1.157.997c-.164.521-.175.768-.175 5.38v4.857l.22.132c.31.199 1.66.604 2.76.828.837.173 1.173.22 3.15.22 1.977 0 2.347-.053 3.107-.22 1.238-.272 2.162-.714 2.932-1.487 1.082-1.085 1.482-2.186 1.487-3.89 0-1.136-.159-2.04-.616-2.935-.162-.326-.323-.593-.307-.612.103-.103 1.233 1.247 1.49 1.792 1.62 3.427.847 6.222-2.496 9.009-1.482 1.236-4.044 2.932-5.513 3.673-.513.257-.608.355-.481.482.031.032 2.588.058 5.684.042l5.645-.042.482-.22c.974-.466 1.588-1.154 1.879-2.101.17-.54.175-.786.175-7.434 0-6.984-.01-7.585-.305-7.699-.068-.024-.727.05-1.447.172-.794.143-1.916.257-2.885.31-1.694.087-2.546.251-3.546.656-.927.379-1.464.683-1.97 1.093-.45.37-.513.418-.656 1.008-.2.813-.325 1.176-.659 1.618-.248.322-.49.481-.487.306.014-.312.297-1.291.572-1.839.813-1.614 1.871-2.77 3.938-4.33.635-.484 1.18-.9 1.18-.965 0-.096-.46-.133-2.54-.133-.741 0-1.308-.005-1.705 0m1.705 4.118c.132 0 .135.132-.043 1.445-.19 1.382-.688 2.488-1.315 3.15-.442.468-.92.592-1.265.346a1.403 1.403 0 0 1-.437-.828c0-.111.04-.117.172-.043.265.14.376.109.702-.174.542-.48 1.111-1.853 1.402-3.414.03-.18.53-.487.784-.487m0 0" style="stroke-width:2.64651" transform="matrix(.71402 0 0 .71402 5.954 5.952)"/></svg>
